icons/wechat-line.svg

<svg xmlns="http://www.w3.org/2000/svg" width="24" height="24" fill="none"><g clip-path="url(#a)"><g><path fill="#121212" d="M10 14.676V14.614C10 12.106 12.016 9.99595 14.753 9.38095C14.389 7.07895 11.959 5.19995 8.9 5.19995C5.58 5.19995 3 7.41295 3 9.97995C3 10.949 3.36 11.88 4.04 12.678C4.072 12.716 4.123 12.772 4.192 12.843C4.7799 13.4472 5.13488 14.24 5.194 15.081C5.90809 14.6681 6.74197 14.5122 7.557 14.639C7.723 14.665 7.859 14.685 7.962 14.699C8.63908 14.7869 9.32518 14.7788 10 14.675V14.676ZM10.457 16.627C9.54728 16.7832 8.61924 16.8017 7.704 16.682C7.5524 16.6614 7.40106 16.6391 7.25 16.615C6.87628 16.5567 6.49398 16.6318 6.17 16.827L4.266 17.975C4.11936 18.0653 3.94764 18.1063 3.776 18.092C3.67219 18.0841 3.57095 18.0559 3.47809 18.0088C3.38522 17.9618 3.30255 17.8969 3.23483 17.8178C3.1671 17.7387 3.11565 17.6471 3.08341 17.5481C3.05118 17.4491 3.03881 17.3447 3.047 17.241L3.197 15.46C3.21569 15.2365 3.18617 15.0117 3.11043 14.8007C3.03469 14.5897 2.9145 14.3975 2.758 14.237C2.67488 14.1522 2.5945 14.0648 2.517 13.975C1.563 12.855 1 11.473 1 9.97895C1 6.23495 4.537 3.19995 8.9 3.19995C12.96 3.19995 16.303 5.82695 16.75 9.20795C20.122 9.36095 22.8 11.723 22.8 14.614C22.8 15.807 22.344 16.91 21.571 17.804C21.52 17.864 21.455 17.934 21.376 18.014C21.2496 18.1412 21.1523 18.2944 21.0909 18.4629C21.0294 18.6314 21.0052 18.8112 21.02 18.99L21.141 20.413C21.1471 20.4964 21.1367 20.5802 21.1103 20.6596C21.084 20.739 21.0422 20.8124 20.9873 20.8756C20.9325 20.9388 20.8657 20.9905 20.7909 21.0278C20.716 21.0651 20.6345 21.0872 20.551 21.093C20.4121 21.1043 20.2731 21.0714 20.154 20.999L18.611 20.082C18.348 19.9263 18.0391 19.8666 17.737 19.913C17.59 19.936 17.467 19.9529 17.369 19.966C17.053 20.006 16.729 20.028 16.4 20.028C13.706 20.028 11.402 18.62 10.457 16.627ZM17.434 17.937C17.9983 17.8501 18.5755 17.91 19.11 18.111C19.2502 17.5438 19.5408 17.0249 19.951 16.609C20.001 16.559 20.038 16.519 20.057 16.497C20.546 15.932 20.8 15.284 20.8 14.614C20.8 12.81 18.897 11.2 16.4 11.2C13.903 11.2 12 12.81 12 14.614C12 16.418 13.903 18.028 16.4 18.028C16.641 18.028 16.88 18.012 17.114 17.982C17.194 17.972 17.302 17.957 17.434 17.936V17.937Z"/></g></g><defs><clipPath id="a"><rect width="24" height="24" fill="white"/></clipPath></defs></svg>

<svg width="24" height="24" fill="none" xmlns="http://www.w3.org/2000/svg"><g clip-path="url(#a)"><path d="M10 14.676v-.062c0-2.508 2.016-4.618 4.753-5.233C14.389 7.079 11.959 5.2 8.9 5.2 5.58 5.2 3 7.413 3 9.98c0 .969.36 1.9 1.04 2.698.032.038.083.094.152.165a3.568 3.568 0 0 1 1.002 2.238 3.611 3.611 0 0 1 2.363-.442c.166.026.302.046.405.06.677.088 1.363.08 2.038-.024v.001Zm.457 1.951a9.21 9.21 0 0 1-2.753.055 17.11 17.11 0 0 1-.454-.067 1.611 1.611 0 0 0-1.08.212l-1.904 1.148a.807.807 0 0 1-1.031-.157.791.791 0 0 1-.188-.577l.15-1.781a1.565 1.565 0 0 0-.439-1.223 5.618 5.618 0 0 1-.241-.262C1.563 12.855 1 11.473 1 9.979 1 6.235 4.537 3.2 8.9 3.2c4.06 0 7.403 2.627 7.85 6.008 3.372.153 6.05 2.515 6.05 5.406 0 1.193-.456 2.296-1.229 3.19-.051.06-.116.13-.195.21a1.238 1.238 0 0 0-.356.976l.121 1.423a.635.635 0 0 1-.59.68.661.661 0 0 1-.397-.094l-1.543-.917a1.322 1.322 0 0 0-.874-.169c-.147.023-.27.04-.368.053a7.72 7.72 0 0 1-.969.062c-2.694 0-4.998-1.408-5.943-3.401Zm6.977 1.31a3.324 3.324 0 0 1 1.676.174 3.25 3.25 0 0 1 .841-1.502c.05-.05.087-.09.106-.112.489-.565.743-1.213.743-1.883 0-1.804-1.903-3.414-4.4-3.414-2.497 0-4.4 1.61-4.4 3.414s1.903 3.414 4.4 3.414c.241 0 .48-.016.714-.046.08-.01.188-.025.32-.046v.001Z" /></g><defs><clipPath id="a"><path fill="#fff" d="M0 0h24v24H0z"/></clipPath></defs></svg>
